src/assets/icons/sort-desc.svg

<svg width="16" height="16" viewBox="0 0 16 16" fill="none" xmlns="http://www.w3.org/2000/svg">
<path fill-rule="evenodd" clip-rule="evenodd" d="M0.65411 0.0226617C0.346018 0.0973938 0.0818483 0.369633 0.0173575 0.678837C-0.0215045 0.865163 0.00737272 1.07848 0.0947738 1.25098C0.152152 1.36418 0.340359 1.55341 0.451645 1.60976C0.660983 1.71577 0.308609 1.70811 4.97327 1.70811C9.64866 1.70811 9.32077 1.71555 9.51392 1.60505C9.62021 1.54423 9.76516 1.40482 9.83259 1.29854C9.9916 1.04793 9.98951 0.66068 9.82775 0.406768C9.7582 0.297585 9.59699 0.147933 9.49111 0.0942821C9.29118 -0.00703617 9.57054 -0.00122312 4.96521 9.33702e-05C1.64905 0.00103372 0.723286 0.00587225 0.65411 0.0226617ZM12.1947 0.0226617C11.8867 0.0973938 11.6225 0.369633 11.558 0.678837C11.5444 0.744012 11.5391 2.49778 11.5391 6.92742V13.0854L10.8253 12.375C10.1665 11.7194 10.103 11.6609 10.0011 11.6164C9.6722 11.4726 9.29926 11.5419 9.04763 11.7935C8.78216 12.059 8.71967 12.4307 8.88289 12.7734C8.9401 12.8935 8.99786 12.9538 10.3989 14.3566C11.2 15.1587 11.8892 15.8375 11.9305 15.8651C12.0794 15.9646 12.1777 15.9913 12.394 15.9913C12.6099 15.9913 12.7249 15.96 12.8641 15.8634C12.9018 15.8373 13.5915 15.1556 14.3969 14.3486C15.9661 12.7762 15.9213 12.826 15.9757 12.5951C16.0461 12.2964 15.965 12.0143 15.7456 11.7949C15.5262 11.5755 15.2441 11.4944 14.9454 11.5648C14.7258 11.6166 14.7067 11.6323 13.9665 12.3701C13.5854 12.7499 13.268 13.0607 13.2612 13.0607C13.2544 13.0607 13.2488 10.2846 13.2488 6.89168C13.2488 1.2682 13.2464 0.714467 13.2213 0.629819C13.2061 0.578732 13.1743 0.498529 13.1505 0.451563C13.0941 0.340277 12.9049 0.152071 12.7917 0.0946925C12.6146 0.00494903 12.383 -0.023005 12.1947 0.0226617ZM3.39227 3.04889C3.23897 3.08724 3.14008 3.1465 3.00655 3.28003C2.823 3.4636 2.75172 3.63133 2.75133 3.88062C2.75095 4.12043 2.84307 4.33052 3.02198 4.49788C3.14419 4.61219 3.28958 4.68964 3.43315 4.71686C3.49341 4.7283 4.50516 4.73432 6.36592 4.73432C9.46206 4.73432 9.29153 4.73955 9.49108 4.63844C9.59819 4.58415 9.75808 4.4351 9.8309 4.32163C9.98975 4.07406 9.99033 3.68275 9.83218 3.43353C9.76063 3.32074 9.60397 3.17403 9.49769 3.12025C9.29882 3.01962 9.47504 3.02489 6.35009 3.02625C4.11138 3.02723 3.4589 3.03222 3.39227 3.04889ZM5.58506 6.06919C5.3817 6.11761 5.12506 6.32746 5.03502 6.51895C4.87511 6.85901 4.93242 7.22154 5.18792 7.48619C5.25211 7.55268 5.34429 7.62623 5.40189 7.65694C5.59809 7.76151 5.56642 7.75992 7.44544 7.76024C8.60164 7.76043 9.18919 7.75453 9.25775 7.742C9.514 7.6952 9.74555 7.51541 9.86812 7.26806L9.94051 7.12197L9.94017 6.90695C9.93988 6.72317 9.93414 6.67775 9.90064 6.59407C9.81533 6.38102 9.61975 6.18531 9.4058 6.09888L9.30791 6.05936L7.47851 6.05665C6.45505 6.05513 5.62089 6.06066 5.58506 6.06919Z" fill="currentColor"/>
</svg>

<svg xmlns="http://www.w3.org/2000/svg" width="16" height="16" fill="none">
  <path fill="currentColor" fill-rule="evenodd" d="M.654.023a.888.888 0 0 0-.637.656c-.039.186-.01.4.078.572.057.113.245.302.357.359.209.106-.143.098 4.521.098 4.676 0 4.348.008 4.54-.103.107-.06.252-.2.32-.306a.887.887 0 0 0-.005-.892c-.07-.11-.231-.26-.337-.313-.2-.101.08-.095-4.526-.094C1.65.001.723.006.655.023Zm11.54 0a.888.888 0 0 0-.636.656c-.014.065-.019 1.819-.019 6.248v6.158l-.714-.71c-.659-.656-.722-.714-.824-.759a.854.854 0 0 0-.953.178.837.837 0 0 0-.165.98c.057.12.115.18 1.516 1.583.801.802 1.49 1.48 1.532 1.508.148.1.247.126.463.126.216 0 .33-.031.47-.128.038-.026.727-.707 1.533-1.514 1.57-1.573 1.524-1.523 1.579-1.754a.826.826 0 0 0-.23-.8.826.826 0 0 0-.8-.23c-.22.052-.24.067-.98.805-.38.38-.698.69-.705.69-.007 0-.012-2.775-.012-6.168 0-5.624-.003-6.178-.028-6.262a1.29 1.29 0 0 0-.07-.178 1.105 1.105 0 0 0-.36-.357.913.913 0 0 0-.596-.072ZM3.393 3.049a.75.75 0 0 0-.385.231.767.767 0 0 0-.256.6c0 .24.092.45.271.618a.848.848 0 0 0 .411.219c.06.011 1.072.017 2.933.017 3.096 0 2.926.006 3.125-.096.107-.054.267-.203.34-.316a.889.889 0 0 0 .001-.888 1.06 1.06 0 0 0-.334-.314c-.2-.1-.023-.095-3.148-.094-2.239.001-2.891.006-2.958.023Zm2.193 3.02a.956.956 0 0 0-.55.45.836.836 0 0 0 .153.967c.064.067.156.14.214.17.196.106.164.104 2.043.104 1.157 0 1.744-.005 1.813-.018a.873.873 0 0 0 .61-.474l.073-.146v-.215c-.001-.184-.007-.23-.04-.313a.939.939 0 0 0-.495-.495l-.098-.04-1.83-.002a61.018 61.018 0 0 0-1.893.012Z" clip-rule="evenodd"/>
</svg>
